X: 148112
T: MY LAME LEG
N: There are two #12 tunes in this sequence.
Q: "Slow."
%R: air, jig
B: James Kerr "Merry Melodies" v.1 p.48 s.1 #12
Z: 2016 John Chambers <jc:trillian.mit.edu>
M: 6/8
L: 1/8
K: Am
|:\
vABd ue2uA | v^f2vd ue2uA | ABd e2A | g2e dBG |\
ABc e2A | ^f2d e2g | gag g^fe | dBg dBG :|
|:\
gag g^fe | v^f2g ua2uf | gag g^fe | dBg dBG |\
gag g^fe | ^f2g a2b | bag g^fe | dBg dBG :|

%%sep 1 1 500
%%sep 1 1 500

